/* XPM */
static char * stick_toggled_active_xpm[] = {
"24 26 4 1",
" 	c None",
".	c #000000",
"+	c #fff2d9",
"@	c #ffb3d6",
"@@@@@@@@@@@@@@@@@@@@@@@@",
"........................",
"........................",
"........................",
"........................",
"........................",
"........................",
"........................",
"........................",
"...........++...........",
".........++++++.........",
".........++++++.........",
"........++++++++........",
"........++++++++........",
".........++++++.........",
".........++++++.........",
"...........++...........",
"........................",
"........................",
"........................",
"........................",
"........................",
"........................",
"........................",
"........................",
"........................"};
